X: 900
T: Smokey Mountain Schottische
B: jims roots
M:4/4
L:1/8
R: Schottische
Q: 1/4=100
K:D
V:1 
DF |: "D"ADBD AFDB, | [A,2D] [_A,2D] [=A,D] DF | ADBD AFED | "G"[B,2G][B,2G][B,2G] [B,G]G, | "A"A,CEF G_A=AE |
(3[Ec][Ec][Ec] (3[Ec][Ec][Ec] [Ec][Ec][Ec]B | ABAG (3F=FE [A,D][A,D] | [1 "D"(3DDD DD DD=F^F :|[2 "D"(3DDD DDDD (3[fa][fa][fa] ||
"D"(3[fa][fa][fa] af afad' | (3[fa][fa][fa] (3[fa][fa][fa] (3[df][df][df] d=c | "G"BGBd gdBd | "D"[A2f][A2f][A2f] (3ABc |
d2 dA c2 cB | ABAF DDB,G, | "A"A,A, [A,2F][A,2=F][A,2E] | "D"(3DDD (3DDD DD d=c ||
"D"AFAB c^cde | "D"(3[Af][Af][Af] fA fAfe | dedc B2 cD | "G"d2[d2g][d2g] dc ||
B2 DB c2 DG, | dBGB dgag | bgae gage | "C"c2 [E2c][E2c] (3c'c'c' |
c'c'c'e beaf | "G"ggag bgde "D" fdcA FDEF | "G"G2G,2 [G,2D2B2g2] |]
V:P:B Part
"D"[fa][fa][fa]f afad' | (3[fa][fa][fa] (3[fa][fa][fa] (3[df][df][df] d=c | "G"BGBd gdBd | "D"[A2f][A2f][A2f] (3[fa][fa][fa] |
V:fa 
[fa]f afad' | (3[fa][fa][fa] (3[fa][fa][fa] (3[df][df][df] fA | "E"EEF2 G2^GG | "A"ABcB AGFA ||
V:P:C Part
V:[K:G 
"G"BDBD cD^cD | dBGB dgag | bgae gage | "C"[E2c][E2c][E2c] [Ec]B |
% abcbook-tune_id 6298c287472a777d1ec34a7b


% abcbook-boost 0
% abcbook-tablature 
% abcbook-transpose 
% abcbook-lastupdated 1654178440533
% abcbook-soundfonts 
% abcbook-repeats 1


